packages/icons/src/components/Flags/assets/disabled/malta.svg

<svg width="24" height="24" viewBox="0 0 24 24" fill="none" xmlns="http://www.w3.org/2000/svg">
<g>
<path d="M12 24C18.6274 24 24 18.6274 24 12C24 5.37258 18.6274 0 12 0C5.37258 0 0 5.37258 0 12C0 18.6274 5.37258 24 12 24Z" fill="#F0F0F0"/>
<path d="M12 0C18.6274 0 24 5.37262 24 12C24 18.6274 18.6274 24 12 24" fill="#454545"/>
<path d="M8.3481 4.69545V3.13025H6.7829V4.69545H5.21765V6.26065H6.7829V7.8259H8.3481V6.26065H9.91331V4.69545H8.3481Z" fill="#ACACAC"/>
</g>
<defs>
<clipPath id="clip0_3072_450">
<rect width="24" height="24" fill="white"/>
</clipPath>
</defs>
</svg>

<svg xmlns="http://www.w3.org/2000/svg" width="24" height="24" fill="none" viewBox="0 0 24 24">
    <path fill="#f0f0f0" d="M12 24c6.627 0 12-5.373 12-12S18.627 0 12 0 0 5.373 0 12s5.373 12 12 12"/>
    <path fill="#454545" d="M12 0c6.627 0 12 5.373 12 12s-5.373 12-12 12"/>
    <path fill="#acacac" d="M8.348 4.695V3.13H6.783v1.565H5.218v1.566h1.565v1.565h1.565V6.26h1.565V4.695z"/>
</svg>
